svgs/duotone/hospital-wide.svg

<svg xmlns="http://www.w3.org/2000/svg" viewBox="0 0 576 512"><!--! Font Awesome Pro 6.0.0-alpha3 by @fontawesome - https://fontawesome.com License - https://fontawesome.com/license (Commercial License) --><defs><style>.fa-secondary{opacity:.4}</style></defs><path class="fa-primary" d="M309.6 224H266.4C260.7 224 256 219.4 256 213.6V176H218.4C212.7 176 208 171.4 208 165.6V122.4c0-5.742 4.656-10.4 10.4-10.4H256V74.42c0-5.742 4.656-10.4 10.4-10.4h43.2C315.3 64.02 320 68.68 320 74.42v37.6h37.6C363.3 112 368 116.7 368 122.4v43.2c0 5.742-4.656 10.4-10.4 10.4H320v37.6C320 219.4 315.3 224 309.6 224z"/><path class="fa-secondary" d="M528 96.01L448 96.01V48.01c0-26.51-21.49-48-48-48h-224c-26.51 0-48 21.49-48 48v47.99L48 96.01c-26.51 0-48 21.49-48 48v336c0 17.67 14.33 32 32 32h512c17.67 0 32-14.33 32-32v-336C576 117.5 554.5 96.01 528 96.01zM128 432c0 8.836-7.164 16-16 16h-32c-8.836 0-16-7.164-16-16v-32c0-8.838 7.164-16 16-16h32c8.836 0 16 7.162 16 16V432zM128 336c0 8.836-7.164 16-16 16h-32c-8.836 0-16-7.164-16-16v-32c0-8.838 7.164-16 16-16h32c8.836 0 16 7.162 16 16V336zM256 432c0 8.836-7.164 16-16 16h-32c-8.836 0-16-7.164-16-16v-32c0-8.838 7.164-16 16-16h32c8.836 0 16 7.162 16 16V432zM256 336c0 8.836-7.164 16-16 16h-32c-8.836 0-16-7.164-16-16v-32c0-8.838 7.164-16 16-16h32c8.836 0 16 7.162 16 16V336zM309.6 224H266.4C260.7 224 256 219.4 256 213.6V176H218.4C212.7 176 208 171.4 208 165.6V122.4c0-5.742 4.656-10.4 10.4-10.4H256V74.42c0-5.742 4.656-10.4 10.4-10.4h43.2C315.3 64.02 320 68.68 320 74.42v37.6h37.6C363.3 112 368 116.7 368 122.4v43.2c0 5.742-4.656 10.4-10.4 10.4H320v37.6C320 219.4 315.3 224 309.6 224zM384 432c0 8.836-7.164 16-16 16h-32c-8.836 0-16-7.164-16-16v-32c0-8.838 7.164-16 16-16h32c8.836 0 16 7.162 16 16V432zM384 336c0 8.836-7.164 16-16 16h-32c-8.836 0-16-7.164-16-16v-32c0-8.838 7.164-16 16-16h32c8.836 0 16 7.162 16 16V336zM512 432c0 8.836-7.164 16-16 16h-32c-8.836 0-16-7.164-16-16v-32c0-8.838 7.164-16 16-16h32c8.836 0 16 7.162 16 16V432zM512 336c0 8.836-7.164 16-16 16h-32c-8.836 0-16-7.164-16-16v-32c0-8.838 7.164-16 16-16h32c8.836 0 16 7.162 16 16V336z"/></svg>

<svg xmlns="http://www.w3.org/2000/svg" viewBox="0 0 576 512"><!-- Font Awesome Pro 6.0.0-alpha2 by @fontawesome - https://fontawesome.com License - https://fontawesome.com/license (Commercial License) --><defs><style>.fa-secondary{opacity:.4}</style></defs><path d="M528 96.029H448V48.029C448 21.519 426.51 0.029 400 0.029H176C149.49 0.029 128 21.519 128 48.029V96.029H48C21.49 96.029 0 117.519 0 144.029V480.029C0 497.702 14.327 512.029 32 512.029H544C561.673 512.029 576 497.702 576 480.029V144.029C576 117.519 554.51 96.029 528 96.029ZM128 432.029C128 440.865 120.836 448.029 112 448.029H80C71.164 448.029 64 440.865 64 432.029V400.029C64 391.191 71.164 384.029 80 384.029H112C120.836 384.029 128 391.191 128 400.029V432.029ZM128 336.029C128 344.865 120.836 352.029 112 352.029H80C71.164 352.029 64 344.865 64 336.029V304.029C64 295.191 71.164 288.029 80 288.029H112C120.836 288.029 128 295.191 128 304.029V336.029ZM256 432.029C256 440.865 248.836 448.029 240 448.029H208C199.164 448.029 192 440.865 192 432.029V400.029C192 391.191 199.164 384.029 208 384.029H240C248.836 384.029 256 391.191 256 400.029V432.029ZM256 336.029C256 344.865 248.836 352.029 240 352.029H208C199.164 352.029 192 344.865 192 336.029V304.029C192 295.191 199.164 288.029 208 288.029H240C248.836 288.029 256 295.191 256 304.029V336.029ZM309.602 224.029H266.398C260.656 224.029 256 219.373 256 213.631V176.029H218.398C212.656 176.029 208 171.373 208 165.631V122.427C208 116.685 212.656 112.029 218.398 112.029H256V74.427C256 68.685 260.656 64.029 266.398 64.029H309.602C315.344 64.029 320 68.685 320 74.427V112.029H357.602C363.344 112.029 368 116.685 368 122.427V165.631C368 171.373 363.344 176.029 357.602 176.029H320V213.631C320 219.373 315.344 224.029 309.602 224.029ZM384 432.029C384 440.865 376.836 448.029 368 448.029H336C327.164 448.029 320 440.865 320 432.029V400.029C320 391.191 327.164 384.029 336 384.029H368C376.836 384.029 384 391.191 384 400.029V432.029ZM384 336.029C384 344.865 376.836 352.029 368 352.029H336C327.164 352.029 320 344.865 320 336.029V304.029C320 295.191 327.164 288.029 336 288.029H368C376.836 288.029 384 295.191 384 304.029V336.029ZM512 432.029C512 440.865 504.836 448.029 496 448.029H464C455.164 448.029 448 440.865 448 432.029V400.029C448 391.191 455.164 384.029 464 384.029H496C504.836 384.029 512 391.191 512 400.029V432.029ZM512 336.029C512 344.865 504.836 352.029 496 352.029H464C455.164 352.029 448 344.865 448 336.029V304.029C448 295.191 455.164 288.029 464 288.029H496C504.836 288.029 512 295.191 512 304.029V336.029Z" class="fa-secondary"/><path d="M309.602 224.029H266.398C260.656 224.029 256 219.373 256 213.631V176.029H218.398C212.656 176.029 208 171.373 208 165.631V122.427C208 116.685 212.656 112.029 218.398 112.029H256V74.427C256 68.685 260.656 64.029 266.398 64.029H309.602C315.344 64.029 320 68.685 320 74.427V112.029H357.602C363.344 112.029 368 116.685 368 122.427V165.631C368 171.373 363.344 176.029 357.602 176.029H320V213.631C320 219.373 315.344 224.029 309.602 224.029Z" class="fa-primary"/></svg>
